X: 15064
T: German Beau, The
R: polka
M: 2/4
K: Gmajor
|:D|G2 DG|A>F DB|cB AG|F/G/A/F/ D/E/F/D/|
G2 DG|A>F Dc|B/d/B/G/ A/c/A/F/|G2 G:|
|:D|G/A/B/c/ dG/A/|B/c/d/e/ dd|c>d ef|g2 fg|
e2 cA|d2 BG|cB AG|F/G/A/F/ D/E/F/D/|
G2 DG|A>F Dc|B/d/B/G/ A/c/A/F/|G2 G:|

